**kern
*staff1
*head[head1a]
*head[head1b]
*head[head1aa]
*solo1[solo1a]
*solo1[solo1b]
*solo1[solo1aa]
*clefG2
*k[]
*E-:
*M4/4
*>head1a
{8B-/L
8e-/
8g/J
=1
8f/L
8f/
8f/
8f/J
8e-/L
8f/J
8r
8g/}
=2
2r
8r
{8B-/L
8e-/
8g/J
=3
8f/L
8f/
8f/
8f/J
8e-/L
8f/J
8r
8e-/}
=4
2r
8r
{8B-/L
8e-/
8g/J
=5
8f/L
8f/
8f/
8f/J
8e-/L
8f/J
8r
8g/
=6
8r
4.b-\
4a/
4a-/
=7
8g/L
8g/
8g/
8g/J
8f/L
8f/J
8r
8e-/}
=8
2r
8r
8B-/L
8e-/
8g/J
=9
2r
8r
*>head1b
{8b-\L
8cc\
8dd\J
=10:|!
8ee-\L
8ee-\
8ee-\
8ee-\J
8cc/L
8a-/J
8r
8dd\
=11||
8r
4.dd\
8b-/L
8g/J}
4r
=12
{8cc\L
8cc\
8cc\
8cc\J
8a-/L
8f/J
8r
[8b-\
=13
2b-\]
8r
8b-\L
8cc\
8dd\J
=14
8ee-\L
8ee-\
8ee-\
8ee-\J
8cc/L
8a-/J
8r
8dd\
=15
8r
4.dd\
8b-/L
8g/J}
4r
=16
{8cc\L
8cc\
8cc\
8cc\J
8a-/L
8f/
8g/
[8e-/J
=17
2e-/]}
8r
*>head1aa
{8B-/L
8e-/
8g/J
=18
8f/L
8f/
8f/
8f/J
8e-/L
8f/J
8r
8g/
=19||
2r
8r
8B-/L
8e-/
8g/J
=20
8f/L
8f/
8f/
8f/J
8e-/L
8f/J
8r
8e-/}
=21
2r
8r
{8B-/L
8e-/
8g/J
=22
8f/L
8f/
8f/
8f/J
8e-/L
8f/J
8r
8g/
=23
8r
4.b-\
4a/
4a-/
=24
8g/L
8g/
8g/
8g/J
8f/L
8f/J
8r
8e-/}
=25
2r
8r
*>solo1a
{[8c/
12c/L]
12e-/
12g/J
=26
8b-/L
8g/
8a-/
[8B/J
8B/]
4g/
8f/
=27||
4.d/
8f/}
4r
8r
{8e-/
=28
12c/L
12e-/
12g/J
8b-/L
8g/J
8a-/L
8dd-/J
24bn\LL
24dd-\
24b\JJ
8an/
=29
8b-/L
[8g/J
4g/]}
2r
=30
8r
{8e/
12f/L
12a-/
12cc/J
8ee-\L
8dd\
8cc\
8b\J
=31
24b-\LL
24bn\
24b-\JJ
8a-/L
8g/
8f/J
8e/L
8G/
8B-/
8d-/J
=32
8c/L
8B-/J
12c/L
12e-/
12g/J
8f/L
8B-/
8d/
[8e-/J
=33
4e-/]
8r
[8cc\
4cc\]
8ee-\L
8cc\J
=34
8b-/L
[8a-/J
4a-/]}
2r
=35||
8r
{8e-/
16f#/LL
16g/
16g#/
16a/JJ
16b-/LL
16a-/
16gn/
16fn/JJ
16en/LL
16G/
16B-/
16d-/JJ
=36
16c/LL
16B/
16B-/
16A/JJ
16A-/LL
16c/
16g/
16g-/JJ
8f/
16r
16e-/
24c#/LL
24d/
24b/JJ
16a-/LL
16an/JJ
=37
8b-\
8r
16r
16dd-\LL
16cc\
16bn\JJ
16b-/LL
16a-/
16g/
16f/JJ
16e/LL
16G/
16B-/
16d-/JJ
=38
16c/LL
16B-/JJ
24c/LL
24e-/
24g/JJ
4f/}
2r
=39
16r
{16a\LL
16b-\
16cc\JJ
16dd-\LL
16cc\
16dd-\
32cc\L
32bn\JJJ
16b-/LL
16a-/
16g/
16f/JJ
16e/LL
16G/
16B-/
16d-/JJ
=40
16c/LL
16B-/
16c/
16e-/JJ
16g/LL
16f/
16c/
16B-/JJ
8f/
16r
[16g-/
24g-/LL]
24d/
24d-/
24Bn/
24A/
24A-/JJ}
=41
4r
8r
*>solo1b
{16b-/LL
16a-/JJ
16g/LL
16f/
16e-/
16B-/JJ
16d-/LL
16Bn/JJ
24c/LL
24e-/
24g/JJ
=42
16b-/LL
16g/JJ
32a-\LLL
32cc\
32ee-\
32gg\JJ
8ff\J}
8r
2r
=43||
8r
{8b-\L
8dd\
[8cc\J
8cc\L]
8bn\
8b\
8a\J
=44
8a-/L
8c/
8g/
8f/J
8B/L
8b-/
8a-/
16b-/L
16a-/JJ
=45
8g/L
8f/J
16e-/LL
16B-/J
[8d-/J
4d-/]
16c/LL
16e-/
16g/
16b-/JJ
=46
4a-/}
4r
4r
8r
{8b-\
=47
8dd\L
8cc\
8dd\
8cc\J
24b-\LL
24cc\
24b-\JJ
8a/L
8a-/
8g/J
=48
4f/
8r
[8c/
8c/L]
8e-/
8g/
[8f/J
=49
4f/]
8e-/L
8c#/J
8d/L
8b-/
8g/
8cn/J
=50
8f/
8r
8c/L
8A-/J
8B/L
[8g/J
4g/]
=51||
2d/}
2r
=52
8r
*>solo1aa
{8b-\
24ee-\LL
24ff\
24ee-\JJ
8cc\
24dd\LL
24ee-\
24dd\JJ
8b-\
24cc\LL
24dd\
24cc\JJ
8a-/
=53
24b-\LL
24cc\
24b-\JJ
8g/
24a-/LL
24b-/
24a-/JJ
8f/
24g/LL
24a-/
24g/JJ
8f/L
8e/
8G/J
=54
8B-/L
8d-/
8c/
8B-/J
16c/LL
16e-/
16f/
16g/J
8f/
8c/J
=55
4b-\
2b-\
8r
8g/
=56
8a-/L
8b-/J
2g/
4e-/
=57
2e-/
4r
16b-/LL
16a/
16a-/
16g/JJ
=58
4f/
4r
2r
==
*-
